kora/panel/16/indicator-sensors-chip.svg

<svg xmlns="http://www.w3.org/2000/svg" width="16" height="16" viewBox="0 0 16 16">
 <defs>
  <style id="current-color-scheme" type="text/css">
   .ColorScheme-Text { color:#dfdfdf; } .ColorScheme-Highlight { color:#4285f4; } .ColorScheme-NeutralText { color:#ff9800; } .ColorScheme-PositiveText { color:#4caf50; } .ColorScheme-NegativeText { color:#f44336; }
  </style>
 </defs>
 <path style="opacity:0.3;fill:currentColor" class="ColorScheme-Text" d="m5 1h6c.554 0 1 .446 1 1v11c0 .554-.446 1-1 1h-6c-.554 0-1-.446-1-1v-11c0-.554.446-1 1-1z" fill-opacity=".3" fill-rule="nonzero"/>
 <path style="fill:currentColor" class="ColorScheme-Text" d="m5 1h6c.554 0 1 .446 1 1v11c0 .554-.446 1-1 1h-6c-.554 0-1-.446-1-1v-11c0-.554.446-1 1-1zm0 1v11h6v-11zm9.75 10c.138 0 .25.111.25.25v.5c0 .138-.112.25-.25.25h-1.75v-1zm-13.5 0c-.139 0-.25.111-.25.25v.5c0 .138.111.25.25.25h1.75v-1zm13.5-2c.138 0 .25.111.25.25v.5c0 .138-.112.25-.25.25h-1.75v-1zm-13.5 0c-.139 0-.25.111-.25.25v.5c0 .138.111.25.25.25h1.75v-1zm13.5-2c.138 0 .25.111.25.25v.5c0 .138-.112.25-.25.25h-1.75v-1zm-13.5 0c-.139 0-.25.111-.25.25v.5c0 .138.111.25.25.25h1.75v-1zm13.5-2c.138 0 .25.112.25.25v.5c0 .138-.112.25-.25.25h-1.75v-1zm-13.5 0c-.139 0-.25.112-.25.25v.5c0 .138.111.25.25.25h1.75v-1zm13.5-2c.138 0 .25.112.25.25v.5c0 .138-.112.25-.25.25h-1.75v-1zm-13.5 0c-.139 0-.25.112-.25.25v.5c0 .138.111.25.25.25h1.75v-1zm13.5-2c.138 0 .25.111.25.25v.5c0 .139-.112.25-.25.25h-1.75v-1zm-13.5 0c-.139 0-.25.111-.25.25v.5c0 .139.111.25.25.25h1.75v-1z"/>
</svg>

<svg xmlns="http://www.w3.org/2000/svg" width="16" height="16" version="1.1">
 <defs>
  <style id="current-color-scheme" type="text/css">
   .ColorScheme-Text { color:#dfdfdf; } .ColorScheme-Highlight { color:#4285f4; }
  </style>
 </defs>
 <path style="fill:currentColor" class="ColorScheme-Text" d="M 14.75,2 C 14.888,2 15,2.1115 15,2.25 V 2.75 C 15,2.8885 14.888,3 14.75,3 H 13 V 2 Z M 14.75,4 C 14.888,4 15,4.1115 15,4.25 V 4.75 C 15,4.8885 14.888,5 14.75,5 H 13 V 4 Z M 14.75,6 C 14.888,6 15,6.1115 15,6.25 V 6.75 C 15,6.8885 14.888,7 14.75,7 H 13 V 6 Z M 14.75,8 C 14.888,8 15,8.111 15,8.25 V 8.75 C 15,8.888 14.888,9 14.75,9 H 13 V 8 Z M 14.75,10 C 14.888,10 15,10.111 15,10.25 V 10.75 C 15,10.888 14.888,11 14.75,11 H 13 V 10 Z M 14.75,12 C 14.888,12 15,12.111 15,12.25 V 12.75 C 15,12.888 14.888,13 14.75,13 H 13 V 12 Z M 1.25,2 C 1.1115,2 1,2.1115 1,2.25 V 2.75 C 1,2.8885 1.1115,3 1.25,3 H 3 V 2 Z M 1.25,4 C 1.1115,4 1,4.1115 1,4.25 V 4.75 C 1,4.8885 1.1115,5 1.25,5 H 3 V 4 Z M 1.25,6 C 1.1115,6 1,6.1115 1,6.25 V 6.75 C 1,6.8885 1.1115,7 1.25,7 H 3 V 6 Z M 1.25,8 C 1.1115,8 1,8.111 1,8.25 V 8.75 C 1,8.888 1.1115,9 1.25,9 H 3 V 8 Z M 1.25,10 C 1.1115,10 1,10.111 1,10.25 V 10.75 C 1,10.888 1.1115,11 1.25,11 H 3 V 10 Z M 1.25,12 C 1.1115,12 1,12.111 1,12.25 V 12.75 C 1,12.888 1.1115,13 1.25,13 H 3 V 12 Z M 5,1 H 11 C 11.554,1 12,1.446 12,2 V 13 C 12,13.554 11.554,14 11,14 H 5 C 4.446,14 4,13.554 4,13 V 2 C 4,1.446 4.446,1 5,1 Z"/>
</svg>
